icons/stopwatch-24.svg

<svg xmlns="http://www.w3.org/2000/svg" width="24" height="24" viewBox="0 0 24 24"><path d="M10.25 0h3.5a.75.75 0 010 1.5h-1v1.278a9.954 9.954 0 015.636 2.276L19.72 3.72a.751.751 0 011.042.018.751.751 0 01.018 1.042l-1.315 1.316A9.959 9.959 0 0122 12.75c0 5.523-4.477 10-10 10s-10-4.477-10-10a9.959 9.959 0 012.535-6.654L3.22 4.78a.751.751 0 01.018-1.042.751.751 0 011.042-.018l1.335 1.334a9.958 9.958 0 015.635-2.276V1.5h-1a.75.75 0 010-1.5zM12 21.25a8.5 8.5 0 10-.001-17.001A8.5 8.5 0 0012 21.25zm4.03-12.53a.75.75 0 010 1.06l-2.381 2.382a1.75 1.75 0 11-1.06-1.06l2.38-2.382a.75.75 0 011.061 0z"/></svg>

<svg xmlns="http://www.w3.org/2000/svg" width="24" height="24" viewBox="0 0 24 24">
  <defs/>
  <path d="M10.25,0 L13.75,0 C14.164,0 14.5,0.336 14.5,0.75 C14.5,1.164 14.164,1.5 13.75,1.5 L12.75,1.5 L12.75,2.778 C14.82,2.931 16.791,3.726 18.386,5.054 L19.72,3.72 C20.016,3.445 20.476,3.453 20.762,3.738 C21.047,4.024 21.055,4.484 20.78,4.78 L19.465,6.096 C21.101,7.926 22.004,10.295 22,12.75 C22,18.273 17.523,22.75 12,22.75 C6.477,22.75 2,18.273 2,12.75 C1.996,10.295 2.899,7.926 4.535,6.096 L3.22,4.78 C2.945,4.484 2.953,4.024 3.238,3.738 C3.524,3.453 3.984,3.445 4.28,3.72 L5.615,5.054 C7.21,3.727 9.18,2.931 11.25,2.778 L11.25,1.5 L10.25,1.5 C9.836,1.5 9.5,1.164 9.5,0.75 C9.5,0.336 9.836,0 10.25,0 Z M12,21.25 C16.694,21.25 20.5,17.444 20.5,12.75 C20.5,8.056 16.694,4.25 12,4.25 C7.306,4.25 3.5,8.056 3.5,12.75 C3.5,17.444 7.306,21.25 12,21.25 Z M16.03,8.72 C16.322,9.013 16.322,9.487 16.03,9.78 L13.649,12.162 C13.924,12.933 13.628,13.791 12.936,14.229 C12.245,14.667 11.342,14.566 10.763,13.988 C10.185,13.409 10.084,12.506 10.522,11.815 C10.96,11.123 11.818,10.827 12.589,11.102 L14.969,8.72 C15.262,8.427 15.737,8.427 16.03,8.72 Z"/>
</svg>
